!!!!SEGMENT: pl-cz--iii-459--002_kuci-mateusz--symfonia-g-menuetto.krn
!!!cenid: 17xx:234
!!!COM: Kuci, Mateusz
!!!COM-rismid: pe30017582
!!!CDT:
!!!CNT:
!!!OTL: Symfonia G - Menuetto
!!!PDT:
!!!AGN: Secular
!!!SMS-siglum: PL-CZ
!!!SMS-shelfmark: III-459
!!!SMS-shelfwork: 001-002 M
!!!NIFC-rismid:
!!!URL-scan: http://repozytorium.nifc.pl/skany/pl-cz-nut--iii-459
!!!ONB-nifc:
**kern	**dynam	**kern	**dynam	**kern	**dynam	**kern	**dynam	**kern	**kern	**kern	**kern	**kern	**dynam	**kern
*part10	*part10	*part9	*part9	*part8	*part8	*part7	*part7	*part6	*part5	*part4	*part3	*part2	*part2	*part1
*group3	*	*group3	*	*group3	*	*group3	*	*group2	*group2	*group1	*group1	*group1	*	*group1
*staff10	*	*staff9	*	*staff8	*	*staff7	*	*staff6	*staff5	*staff4	*staff3	*staff2	*	*staff1
*I"Baſso	*	*I"Viola	*	*I"Violino Secondo.	*	*I"Violino Primo.	*	*I"Cornu IIdo	*I"Cornu Imo	*I"Fagotto 2do	*I"Fagotto Imo	*I"Oboe Secondo	*	*I"Oboe Primo.
*I'B	*	*I'Vla	*	*I'Vn II	*	*I'Vn I	*	*I'Cor II	*I'Cor I	*I'Fag II	*I'Fag I	*I'Ob II	*	*I'Ob I
*clefF4	*	*clefC3	*	*clefG2	*	*clefG2	*	*clefG2	*clefG2	*clefF4	*clefF4	*clefG2	*	*clefG2
*	*	*	*	*	*	*	*	*ITrd3c5	*ITrd3c5	*	*	*	*	*
*k[f#]	*	*k[f#]	*	*k[f#]	*	*k[f#]	*	*k[f#]	*k[f#]	*k[f#]	*k[f#]	*k[f#]	*	*k[f#]
*G:	*	*G:	*	*G:	*	*G:	*	*	*	*G:	*G:	*G:	*	*G:
*M3/4	*	*M3/4	*	*M3/4	*	*M3/4	*	*M3/4	*M3/4	*M3/4	*M3/4	*M3/4	*	*M3/4
*	*	*	*	*	*	*16\right	*	*	*	*	*	*	*	*
=-	=-	=-	=-	=-	=-	=-	=-	=-	=-	=-	=-	=-	=-	=-
!	!	!	!	!	!	!	!	!LO:TX:a:B:t=in G.	!LO:TX:a:B:t=in G.	!	!	!	!	!
!LO:TX:a:B:t=Menuetto	!	!LO:TX:a:B:t=Menuetto	!	!LO:TX:a:B:t=Menuetto	!	!LO:TX:a:B:t=Menuetto	!	!LO:TX:a:B:t=Menuetto	!LO:TX:a:B:t=Menuetto	!LO:TX:a:B:t=Menuetto Tacet.	!LO:TX:a:B:t=Menuetto Tacet	!LO:TX:a:B:t=Menuetto	!	!LO:TX:a:B:t=Menuetto
!	!	!	!	!	!	!	!	!	!	!	!	!	!	!
4r	.	4r	.	4r	.	(16dd\LL	.	4r	4r	4ryy	4ryy	4r	.	4r
.	.	.	.	.	.	16cc\	.	.	.	.	.	.	.	.
.	.	.	.	.	.	16b\	.	.	.	.	.	.	.	.
.	.	.	.	.	.	16a\JJ)	.	.	.	.	.	.	.	.
=1	=1	=1	=1	=1	=1	=1	=1	=1	=1	=1	=1	=1	=1	=1
4r	.	4r	.	4r	.	4g/	.	4r	4r	2.ryy	2.ryy	4r	.	4r
*4\right	*	*4\right	*	*4\right	*	*4\right	*	*4\right	*4\right	*	*	*4\right	*	*4\right
4B\	.	4b\	.	4b\	.	4gg\	.	4g\	4b\	.	.	4b\	.	4gg\
4G\	.	4g\	.	4b\	.	4gg\	.	4g\	4b\	.	.	4b\	.	4gg\
=2	=2	=2	=2	=2	=2	=2	=2	=2	=2	=2	=2	=2	=2	=2
4d\	.	4dd\	.	(4b\	.	(4gg\	.	2d/	4b\	2.ryy	2.ryy	(4b\	.	(4gg\
4D/	.	4d/	.	4a\)	.	4ff#X\)	.	.	4a\	.	.	4a\)	.	4ff#\)
4r	.	4r	.	4r	.	(16a/LL	.	4r	4r	.	.	4r	.	4r
.	.	.	.	.	.	16g/	.	.	.	.	.	.	.	.
.	.	.	.	.	.	16f#/	.	.	.	.	.	.	.	.
.	.	.	.	.	.	16e/JJ)	.	.	.	.	.	.	.	.
=3	=3	=3	=3	=3	=3	=3	=3	=3	=3	=3	=3	=3	=3	=3
4r	.	4r	.	4r	.	4d`/	.	4r	4r	2.ryy	2.ryy	4r	.	4r
4F#X\	.	4f#X\	.	4a/	.	4ccn\	.	4d/	4a\	.	.	4cc\	.	4aa\
4D\	.	4d\	.	4a/	.	4cc\	.	4d/	4a\	.	.	4cc\	.	4aa\
=4	=4	=4	=4	=4	=4	=4	=4	=4	=4	=4	=4	=4	=4	=4
4G\	.	4g\	.	(4a/	.	(4cc\	.	(4d/	(4a\	2.ryy	2.ryy	(4cc\	.	(4aa\
4GG/	.	4G/	.	4g/)	.	4b\)	.	4g/)	4b\)	.	.	4b\)	.	4gg\)
*	*	*	*	*16\right	*	*	*	*	*	*	*	*	*	*
4r	.	4r	.	(16dd\LL	.	(16dd\LL	.	4r	4r	.	.	4r	.	4r
.	.	.	.	16cc\	.	16cc\	.	.	.	.	.	.	.	.
.	.	.	.	16b\	.	16b\	.	.	.	.	.	.	.	.
.	.	.	.	16a\JJ)	.	16a\JJ)	.	.	.	.	.	.	.	.
=5	=5	=5	=5	=5	=5	=5	=5	=5	=5	=5	=5	=5	=5	=5
!	!	!	!	!	!	!	!	!LO:TX:a:t=2	!LO:TX:a:t=2	!	!	!LO:TX:a:t=2	!	!LO:TX:a:t=2
!	!	!	!	!	!	!	!	!LO:N:vis=0	!LO:N:vis=0	!	!	!LO:N:vis=0	!	!LO:N:vis=0
4r	.	4r	.	4g/	.	4g/	.	1.r	1.r	2.ryy	2.ryy	1.r	.	1.r
4r	.	4r	.	16gg\LL	.	(16gg\LL	.	.	.	.	.	.	.	.
.	.	.	.	16ff#\	.	16ff#\	.	.	.	.	.	.	.	.
.	.	.	.	16ee\	.	16ee\	.	.	.	.	.	.	.	.
.	.	.	.	16dd\JJ	.	16dd\JJ)	.	.	.	.	.	.	.	.
!LO:TX:a:t=e	!	!	!	!	!	!	!	!	!	!	!	!	!	!
4E\	.	4e\	.	4cc#X\	.	4cc#X\	.	.	.	.	.	.	.	.
!	!	!	!	!LO:LB:g=original	!	!	!	!	!	!	!	!	!	!
=6	=6	=6	=6	=6	=6	=6	=6	=6	=6	=6	=6	=6	=6	=6
4r	.	4r	.	16aa\LL	.	16aa\LL	.	.	.	2.ryy	2.ryy	.	.	.
.	.	.	.	16gg\	.	16gg\	.	.	.	.	.	.	.	.
.	.	.	.	16ff#\	.	16ff#\	.	.	.	.	.	.	.	.
.	.	.	.	16ee\JJ	.	16ee\JJ	.	.	.	.	.	.	.	.
4F#X\	.	4f#X\	.	4dd\	.	4dd\	.	.	.	.	.	.	.	.
4r	.	4r	.	16ddd\LL	.	16ddd\LL	.	.	.	.	.	.	.	.
.	.	.	.	16ccc#i\	.	16ccc#X\	.	.	.	.	.	.	.	.
.	.	.	.	16bb\	.	16bb\	.	.	.	.	.	.	.	.
.	.	.	.	16aa\JJ	.	16aa\JJ	.	.	.	.	.	.	.	.
!	!	!	!	!	!	!LO:LB:g=original	!	!	!	!	!	!	!	!
=7	=7	=7	=7	=7	=7	=7	=7	=7	=7	=7	=7	=7	=7	=7
4r	.	4r	.	4.ff#\	.	4.aa\	.	4r	4r	2.ryy	2.ryy	4.ff#\	.	4.aa\
4c#X\	.	4cc#X\	.	.	.	.	.	4a\	4a\	.	.	.	.	.
*	*	*	*	*8\right	*	*8\right	*	*	*	*	*	*8\right	*	*8\right
.	.	.	.	8ee\	.	8gg\	.	.	.	.	.	8ee\	.	8gg\
4d\	.	4dd\	.	4dd\	.	4ff#\	.	4a\	4a\	.	.	4dd\	.	4ff#\
!LO:LB:g=original	!	!	!	!	!	!	!	!	!	!	!	!LO:LB:original	!	!
=8	=8	=8	=8	=8	=8	=8	=8	=8	=8	=8	=8	=8	=8	=8
.	.	.	.	8qqa/	.	8qqff#/	.	.	.	.	.	8qqa/	.	8qqff#/
4G\	.	4g\	.	4g/	.	4ee\	.	4r	4r	2.ryy	2.ryy	4g/	.	4ee\
4A\	.	4a\	.	4f#/	.	4dd\	.	4a\	4a\	.	.	4f#/	.	4dd\
4AA/	.	4A/	.	4e/	.	4cc#X\	.	4a\	4a\	.	.	4e/	.	4cc#X\
!	!	!	!	!	!	!	!	!	!LO:LB:g=original	!	!	!	!	!LO:LB:g=original
=9	=9	=9	=9	=9	=9	=9	=9	=9	=9	=9	=9	=9	=9	=9
!	!	!	!	!	!	!LO:SIC:s=8qcc#:v	!	!	!	!	!	!	!	!LO:SIC:s=8qcc#:v
.	.	.	.	8qqe/	.	8qqcc/	.	.	.	.	.	8qqe/	.	8qqcc/
*	*	*	*	*	*	*2\right	*	*	*2\right	*	*	*	*	*2\right
4D\	.	4d\	.	2f#/	.	2dd\	.	2d/	2a\	2.ryy	2.ryy	2f#/	.	2dd\
4DD/	.	4D/	.	.	.	.	.	.	.	.	.	.	.	.
!	!	!	!	!	!	!	!	!LO:LB:g=original	!	!	!	!	!	!
=:|!|:	=:|!|:	=:|!|:	=:|!|:	=:|!|:	=:|!|:	=:|!|:	=:|!|:	=:|!|:	=:|!|:	=:|!|:	=:|!|:	=:|!|:	=:|!|:	=:|!|:
4r	.	4r	.	4r	.	(16dd\LL	.	4r	4ryy	.	.	4r	.	4r
.	.	.	.	.	.	16cc\	.	.	.	.	.	.	.	.
.	.	.	.	.	.	16b\	.	.	.	.	.	.	.	.
.	.	.	.	.	.	16a\JJ)	.	.	.	.	.	.	.	.
!	!	!LO:LB:g=original	!	!	!	!	!	!	!	!	!	!	!	!
=10	=10	=10	=10	=10	=10	=10	=10	=10	=10	=10	=10	=10	=10	=10
!	!	!	!	!	!	!	!	!LO:TX:a:t=12	!LO:TX:a:t=12	!	!	!	!	!
!	!	!	!	!	!	!	!	!LO:N:vis=00	!LO:N:vis=00	!	!	!	!	!
4r	.	4r	.	4r	.	4g#X/	.	0.r	0.r	2.ryy	2.ryy	4r	.	4r
4G#X\	.	4g#X\	.	4b\	.	4dd\	.	.	.	.	.	4b\	.	4dd\
4E\	.	4e\	.	4b\	.	4dd\	.	.	.	.	.	4b\	.	4dd\
=11	=11	=11	=11	=11	=11	=11	=11	=11	=11	=11	=11	=11	=11	=11
4A\	.	4a\	.	(4b\	.	(4dd\	.	.	.	2.ryy	2.ryy	2a/	.	4dd\
4AA/	.	4A/	.	4a\)	.	4cc#X\)	.	.	.	.	.	.	.	4cc#X\
4r	.	4r	.	4r	.	(16ccn\LL	.	.	.	.	.	4r	.	4r
.	.	.	.	.	.	16b\	.	.	.	.	.	.	.	.
.	.	.	.	.	.	16a\	.	.	.	.	.	.	.	.
.	.	.	.	.	.	16g\JJ)	.	.	.	.	.	.	.	.
=12	=12	=12	=12	=12	=12	=12	=12	=12	=12	=12	=12	=12	=12	=12
4r	.	4r	.	4r	.	4f#X/	.	.	.	2.ryy	2.ryy	4r	.	4r
*	*	*8\right	*	*	*	*	*	*	*	*	*	*	*	*
4F#X\	.	(8f#X\L	.	4a/	.	4cc\	.	.	.	.	.	4a/	.	4ccn\
.	.	8e\)	.	.	.	.	.	.	.	.	.	.	.	.
4D\	.	(8f#\	.	4a/	.	4cc\	.	.	.	.	.	4a/	.	4cc\
.	.	8a\J)	.	.	.	.	.	.	.	.	.	.	.	.
=13	=13	=13	=13	=13	=13	=13	=13	=13	=13	=13	=13	=13	=13	=13
.	.	.	.	8qqa/	.	.	.	.	.	.	.	.	.	.
4G\	.	4g\	.	2g/	.	(4cc\	.	.	.	2.ryy	2.ryy	2.g/	.	4cc\
4GG/	.	4G/	.	.	.	4b\)	.	.	.	.	.	.	.	4b\
4r	.	4r	.	4r	.	(16dd\LL	p	.	.	.	.	.	.	4r
.	.	.	.	.	.	16cc\	.	.	.	.	.	.	.	.
.	.	.	.	.	.	16b\	.	.	.	.	.	.	.	.
.	.	.	.	.	.	16a\JJ)	.	.	.	.	.	.	.	.
!	!	!	!	!LO:LB:g=original	!	!LO:LB:g=original	!	!	!	!	!	!	!	!
=14	=14	=14	=14	=14	=14	=14	=14	=14	=14	=14	=14	=14	=14	=14
!	!	!	!	!	!	!	!	!	!	!	!	!LO:TX:a:t=8	!	!LO:TX:b:B:t=Solo
!	!LO:DY:t=p&colon;	!	!	!	!	!	!	!LO:N:vis=00	!LO:N:vis=00	!	!	!LO:N:vis=00	!	!
4G\	p	(4G/	p	8B/L	.	2g/	.	0.r	0.r	2.ryy	2.ryy	0.r	.	2gg\
.	.	.	.	8d/	.	.	.	.	.	.	.	.	.	.
4B\	.	4B/)	.	8B/	p	.	.	.	.	.	.	.	.	.
.	.	.	.	8d/	.	.	.	.	.	.	.	.	.	.
4d\	.	4d`/	.	(8c/	.	8a/L	.	.	.	.	.	.	.	(8aa\L
.	.	.	.	8d/J)	.	8f#/J	.	.	.	.	.	.	.	8ff#\J)
=15	=15	=15	=15	=15	=15	=15	=15	=15	=15	=15	=15	=15	=15	=15
4G\	.	(4G/	.	8B/L	.	(4g/	.	.	.	2.ryy	2.ryy	.	.	4gg\
.	.	.	.	8d/	.	.	.	.	.	.	.	.	.	.
4D\	.	4B/)	.	8A/	.	4a/	.	.	.	.	.	.	.	4aa\
.	.	.	.	8d/	.	.	.	.	.	.	.	.	.	.
4GG/	.	4d`/	.	8G/	.	4b/)	.	.	.	.	.	.	.	4bb\
.	.	.	.	8d/J	.	.	.	.	.	.	.	.	.	.
=16	=16	=16	=16	=16	=16	=16	=16	=16	=16	=16	=16	=16	=16	=16
4D\	.	4d\	.	(8A/L	.	8cc\L	.	.	.	2.ryy	2.ryy	.	.	8ccc\L
.	.	.	.	8d/	.	8b\	.	.	.	.	.	.	.	8bb\
4D\	.	4d\	.	8A/	.	(8cc\	.	.	.	.	.	.	.	8ccc\
.	.	.	.	8d/	.	8a\	.	.	.	.	.	.	.	8aa\
4D\	.	4d\	.	8A/)	.	8dd\	.	.	.	.	.	.	.	8ddd\
.	.	.	.	8d/J	.	8cc\J)	.	.	.	.	.	.	.	8ccc\J
!	!	!	!	!	!	!	!	!	!	!	!	!	!	!LO:LB:g=original
=17	=17	=17	=17	=17	=17	=17	=17	=17	=17	=17	=17	=17	=17	=17
4G\	.	4g\	.	(8A/L	.	(4cc\	.	.	.	2.ryy	2.ryy	.	.	(4ccc\
.	.	.	.	8d/	.	.	.	.	.	.	.	.	.	.
4G\	.	4g\	.	(8B/	.	4b\)	.	.	.	.	.	.	.	4bb\
.	.	.	.	8d/	.	.	.	.	.	.	.	.	.	.
*	*	*	*	*	*	*	*	*	*	*	*	*	*	*16\right
4G\	.	4g\	.	8B/)	.	16dd\LL	.	.	.	.	.	.	.	16ddd\LL)
.	.	.	.	.	.	16cc\	.	.	.	.	.	.	.	16ccc\
.	.	.	.	8d/J	.	16b\	.	.	.	.	.	.	.	16bb\
.	.	.	.	.	.	16a\JJ	.	.	.	.	.	.	.	16aa\JJ
=18	=18	=18	=18	=18	=18	=18	=18	=18	=18	=18	=18	=18	=18	=18
!	!	!	!	!	!	!	!	!LO:N:vis=00	!LO:N:vis=00	!	!	!LO:N:vis=00	!	!
4G\	.	4G/	.	8B/L	.	2g/	.	0.r	0.r	2.ryy	2.ryy	0.r	.	2gg\
.	.	.	.	(8d/	.	.	.	.	.	.	.	.	.	.
4B\	.	4B/	.	8B/	.	.	.	.	.	.	.	.	.	.
.	.	.	.	8d/	.	.	.	.	.	.	.	.	.	.
4d\	.	4d/	.	8c/)	.	8a/L	.	.	.	.	.	.	.	8aa\L
.	.	.	.	8d/J	.	8f#/J	.	.	.	.	.	.	.	8ff#\J
!LO:LB:g=original	!	!	!	!	!	!	!	!	!	!	!	!	!	!
=19	=19	=19	=19	=19	=19	=19	=19	=19	=19	=19	=19	=19	=19	=19
4G\	.	4g\	.	8B/L	.	4g/	.	.	.	2.ryy	2.ryy	.	.	(4gg\
.	.	.	.	8d/	.	.	.	.	.	.	.	.	.	.
4D\	.	4d\	.	8A/	.	4a/	.	.	.	.	.	.	.	4aa\
.	.	.	.	8d/	.	.	.	.	.	.	.	.	.	.
4GG/	.	4G/	.	8G/	.	4b/	.	.	.	.	.	.	.	4bb\)
.	.	.	.	8d/J	.	.	.	.	.	.	.	.	.	.
=20	=20	=20	=20	=20	=20	=20	=20	=20	=20	=20	=20	=20	=20	=20
4D\	.	4d\	.	8A/L	.	(8cc\L	.	.	.	2.ryy	2.ryy	.	.	8ccc\L
.	.	.	.	8d/	.	8b\	.	.	.	.	.	.	.	(8bb\
4F#\	.	4d\	.	8A/	.	8cc\	.	.	.	.	.	.	.	8ccc\
.	.	.	.	8d/	.	8a\	.	.	.	.	.	.	.	8aa\
4G\	.	4d\	.	8G/	.	8b\	.	.	.	.	.	.	.	8bb\)
.	.	.	.	8d/J	.	8g\J)	.	.	.	.	.	.	.	8gg\J
=21	=21	=21	=21	=21	=21	=21	=21	=21	=21	=21	=21	=21	=21	=21
.	.	.	.	.	.	8qqb/	.	.	.	.	.	.	.	8qff#/
*	*	*2\right	*	*	*	*	*	*	*	*	*	*	*	*
4D\	.	2d\	.	8A/L	.	2a/	.	.	.	2.ryy	2.ryy	.	.	2aa\
.	.	.	.	8d/	.	.	.	.	.	.	.	.	.	.
4DD/	.	.	.	8A/	.	.	f	.	.	.	.	.	.	.
.	.	.	.	8d/J	.	.	.	.	.	.	.	.	.	.
!	!	!	!	!LO:LB:g=original	!	!	!	!	!	!	!	!	!	!
4r	.	4r	.	(16dd\LL	f	(16dd\LL	.	.	.	.	.	.	.	4r
.	.	.	.	16cc\	.	16cc\	.	.	.	.	.	.	.	.
.	.	.	.	16b\	.	16b\	.	.	.	.	.	.	.	.
.	.	.	.	16a\JJ)	.	16a\JJ)	.	.	.	.	.	.	.	.
=22	=22	=22	=22	=22	=22	=22	=22	=22	=22	=22	=22	=22	=22	=22
4r	f	4r	f	4g/	.	4g/	.	4r	4r	2.ryy	2.ryy	4r	.	4r
4B\	.	4b\	.	4b/	.	4gg\	.	4g\	4b\	.	.	4b\	.	4gg\
4G\	.	4g\	.	4b/	.	4gg\	.	4g\	4b\	.	.	4b\	.	4gg\
!	!	!LO:LB:g=original	!	!	!	!LO:LB:g=original	!	!	!	!	!	!	!	!
=23	=23	=23	=23	=23	=23	=23	=23	=23	=23	=23	=23	=23	=23	=23
.	.	.	.	8qqb/	.	.	.	.	.	.	.	.	.	.
4d\	.	4dd\	.	2a/	.	(4gg\	.	2.d/	(4b\	2.ryy	2.ryy	2a/	.	(4gg\
4D\	.	4d\	.	.	.	4ff#\)	.	.	4a\)	.	.	.	.	4ff#\)
4r	.	4r	.	16a/LL	.	(16a/LL	.	.	4r	.	.	4r	.	4r
.	.	.	.	16g/	.	16g/	.	.	.	.	.	.	.	.
.	.	.	.	16f#/	.	16f#/	.	.	.	.	.	.	.	.
.	.	.	.	16e/JJ	.	16e/JJ)	.	.	.	.	.	.	.	.
!	!	!	!	!	!	!	!	!	!	!	!	!LO:LB:g=original	!	!
=24	=24	=24	=24	=24	=24	=24	=24	=24	=24	=24	=24	=24	=24	=24
4r	.	4r	.	4d/	.	4d/	.	4r	4r	2.ryy	2.ryy	4r	.	4r
!LO:TX:a:t=fis	!	!	!	!	!	!	!	!	!	!	!	!	!	!
4F#\	.	(8f#\L	.	4a/	.	4cc\	.	4d/	4a\	.	.	4cc\	.	4aa\
.	.	8e\)	.	.	.	.	.	.	.	.	.	.	.	.
!LO:TX:a:t=d	!	!	!	!	!	!	!	!	!	!	!	!	!	!
4D\	.	(8f#\	.	4a/	.	4cc\	.	4d/	4a\	.	.	4cc\	.	4aa\
.	.	8d\J)	.	.	.	.	.	.	.	.	.	.	.	.
!	!	!	!	!	!	!	!	!	!	!	!	!	!	!LO:LB:g=original
=25	=25	=25	=25	=25	=25	=25	=25	=25	=25	=25	=25	=25	=25	=25
.	.	.	.	8qqa/	.	.	.	.	.	.	.	.	.	.
4G\	.	4g\	.	2g/	.	(4cc\	.	4d/	(4a\	2.ryy	2.ryy	(4cc\	.	4aa\
4GG/	.	4G/	.	.	.	4b\)	.	4g\	4b\)	.	.	4b\)	.	4gg\
4r	.	4r	.	4r	.	16bb\LL	p	4r	4r	.	.	4r	.	4r
.	.	.	.	.	.	(16aa\	.	.	.	.	.	.	.	.
.	.	.	.	.	.	16gg\	.	.	.	.	.	.	.	.
.	.	.	.	.	.	16ff#\JJ)	.	.	.	.	.	.	.	.
=26	=26	=26	=26	=26	=26	=26	=26	=26	=26	=26	=26	=26	=26	=26
4r	.	4r	.	4r	.	4gg\	.	4r	4r	2.ryy	2.ryy	4r	.	4r
4GG/	.	4G/	f	4b 4d 4G/	.	4dd\	f	4G/	4g\	.	.	4g/	.	4dd\
4r	.	4r	.	4r	.	16bb\LL	.	4r	4r	.	.	4r	f	4r
.	.	.	.	.	.	(16aa\	p	.	.	.	.	.	.	.
.	.	.	.	.	.	16gg\	.	.	.	.	.	.	.	.
.	.	.	.	.	.	16ff#\JJ)	.	.	.	.	.	.	.	.
=27	=27	=27	=27	=27	=27	=27	=27	=27	=27	=27	=27	=27	=27	=27
4r	.	4r	.	4r	.	4gg\	.	4r	4r	2.ryy	2.ryy	4r	.	4r
4C/	.	4c/	.	4cc 4e 4G/	.	4ee\	f	4G/	4g\	.	.	4cc\	.	4ee\
.	.	.	.	.	.	8qqaa/	.	.	.	.	.	.	.	.
4r	.	4r	.	4r	.	8gg\L	.	4r	4r	.	.	4r	.	4r
.	.	.	.	.	.	16ff#\L	.	.	.	.	.	.	.	.
.	.	.	.	.	.	16ee\JJ	.	.	.	.	.	.	.	.
=28	=28	=28	=28	=28	=28	=28	=28	=28	=28	=28	=28	=28	=28	=28
4r	.	4r	.	4.b\	.	4.dd\	.	4r	4r	2.ryy	2.ryy	4r	.	4r
4F#X\	.	(4f#X\	.	.	.	.	.	4d/	4a\	.	.	4a/	.	(4ff#X\
.	.	.	.	8a\	.	8cc\	.	.	.	.	.	.	.	.
4G\	.	4g\)	.	4g/	.	4b\	.	4g\	4b\	.	.	4b/	.	4gg\)
!	!	!	!	!	!	!	!	!LO:LB:g=original	!LO:LB:g=original	!	!	!	!	!
=29	=29	=29	=29	=29	=29	=29	=29	=29	=29	=29	=29	=29	=29	=29
.	.	.	.	8qqd/	.	8qqb/	.	.	.	.	.	.	.	8qqbb/
4C/	.	4c'\	.	4c/	.	4a/	.	4r	4r	2.ryy	2.ryy	4r	.	4aa\
4D/	.	4d'\	.	4B/	.	4g/	.	4g\	4b\	.	.	4b/	.	4gg\
4DD/	.	4D'/	.	4A/	.	4f#X/	.	4d/	4a\	.	.	4a/	.	4ff#\
=30	=30	=30	=30	=30	=30	=30	=30	=30	=30	=30	=30	=30	=30	=30
.	.	.	.	8qqA/	.	8qqf#/	.	.	.	.	.	8qqa/	.	8qqff#/
*	*	*	*	*	*	*	*	*	*	*	*	*	*	*
4GG/	.	4G/	.	2B/	.	2g/	.	2G/	2.g\	2.ryy	2.ryy	2b/	.	2gg\
4G\	.	4g\	.	.	.	.	.	.	.	.	.	.	.	.
!LO:LB:g=original	!	!LO:LB:g=original	!	!LO:LB:g=original	!	!LO:LB:g=original	!	!	!	!	!	!LO:LB:g=original	!	!LO:LB:g=original
=:|!	=:|!	=:|!	=:|!	=:|!	=:|!	=:|!	=:|!	=:|!	=:|!	=:|!	=:|!	=:|!	=:|!	=:|!
*k[]	*	*k[]	*	*k[]	*	*k[]	*	*k[]	*k[]	*	*	*k[]	*	*k[]
*C:	*	*C:	*	*C:	*	*C:	*	*C:	*C:	*	*	*C:	*	*C:
!	!	!	!	!	!	!	!	!	!	!	!	!	!	!
!LO:TX:a:B:t=Trio	!	!LO:TX:a:B:t=Trio	!	!LO:TX:a:B:t=Trio	!	!LO:TX:a:B:t=Trio	!	!LO:TX:a:B:t=Trio Tacet	!LO:TX:a:B:t=Trio Tacet&colon;	!	!	!LO:TX:a:B:t=Trio Tacet	!	!LO:TX:a:B:t=Trio
4r	.	4r	.	4r	.	4r	.	4ryy	.	.	.	4ryy	.	8ryy
!	!	!	!	!	!	!	!	!	!	!	!	!	!	!LO:TX:b:B:t=Solo
.	.	.	.	.	.	.	.	.	.	.	.	.	.	8gg\
=31	=31	=31	=31	=31	=31	=31	=31	=31	=31	=31	=31	=31	=31	=31
!	!	!	!	!	!	!	!	!	!	!	!	!	!	!
4C/	p	4c/	p	4a/	p	(4cc\	pp	2.ryy	2.ryy	2.ryy	2.ryy	2.ryy	.	(4ccc\
4r	.	4r	.	4g/	.	4b\	.	.	.	.	.	.	.	4bb\
4r	.	4r	.	4f/	.	4a\)	.	.	.	.	.	.	.	4aa\)
=32	=32	=32	=32	=32	=32	=32	=32	=32	=32	=32	=32	=32	=32	=32
.	.	.	.	.	.	.	.	.	.	.	.	.	.	8qqaa/
4C/	.	4c/	.	4e/	.	4g/	.	2.ryy	2.ryy	2.ryy	2.ryy	2.ryy	.	4ggn\
4r	.	4r	.	4d/	.	4fn/	.	.	.	.	.	.	.	4ff\
4r	.	4r	.	4c/	.	4e/	.	.	.	.	.	.	.	4ee\
=33	=33	=33	=33	=33	=33	=33	=33	=33	=33	=33	=33	=33	=33	=33
*8\right	*	*	*	*	*	*	*	*	*	*	*	*	*	*
8F\L	.	(8f\L	.	4c/	.	(8a/L	.	2.ryy	2.ryy	2.ryy	2.ryy	2.ryy	.	(8aa\L
8En\	.	8e\	.	.	.	8g#X/	.	.	.	.	.	.	.	8gg#X\
8F\	.	8f\	.	4c/	.	8a/	.	.	.	.	.	.	.	8aa\
8E\	.	8e\	.	.	.	8g#/	.	.	.	.	.	.	.	8gg#\
8F\	.	8f\	.	4c/	.	8a/	.	.	.	.	.	.	.	8aa\)
8E\J	.	8e\J)	.	.	.	8g#/J)	.	.	.	.	.	.	.	8gg#\J
=34	=34	=34	=34	=34	=34	=34	=34	=34	=34	=34	=34	=34	=34	=34
4F\	.	4f\	.	4c/	.	4a/	.	2.ryy	2.ryy	2.ryy	2.ryy	2.ryy	.	4aa`\
4r	.	4r	.	4r	.	4r	.	.	.	.	.	.	.	4r
4r	.	4r	.	4r	.	4r	.	.	.	.	.	.	.	4r
=35	=35	=35	=35	=35	=35	=35	=35	=35	=35	=35	=35	=35	=35	=35
!	!	!	!	!LO:N:vis=1	!	!	!	!	!	!	!	!	!	!
4D\	.	4d\	.	2.r	.	(4f/	.	2.ryy	2.ryy	2.ryy	2.ryy	2.ryy	.	(4ff\
4r	.	4r	.	.	.	4e/	.	.	.	.	.	.	.	4ee\
4r	.	4r	.	.	.	4d/)	.	.	.	.	.	.	.	4dd\)
=36	=36	=36	=36	=36	=36	=36	=36	=36	=36	=36	=36	=36	=36	=36
.	.	.	.	.	.	8qqe/	.	.	.	.	.	.	.	8qqee/
4G\	.	4g\	.	4f/	.	4d/	.	2.ryy	2.ryy	2.ryy	2.ryy	2.ryy	.	4dd\
4r	.	4r	.	4e/	.	4c/	.	.	.	.	.	.	.	4cc\
4r	.	4r	.	4d/	.	4B/	.	.	.	.	.	.	.	4b\
!	!	!	!	!	!	!	!	!	!	!	!	!	!	!LO:LB:g=original
=37	=37	=37	=37	=37	=37	=37	=37	=37	=37	=37	=37	=37	=37	=37
4r	.	4r	.	(8e/L	.	(8c/L	.	2.ryy	2.ryy	2.ryy	2.ryy	2.ryy	.	(8cc\L
.	.	.	.	8d/	.	8B/	.	.	.	.	.	.	.	8b\
4r	.	4r	.	8e/	.	8c/	.	.	.	.	.	.	.	8cc\
.	.	.	.	8d/)	.	8B/	.	.	.	.	.	.	.	8ee\
4G\	.	4g\	.	8f/	.	8d/	.	.	.	.	.	.	.	8dd\
.	.	.	.	8d/J	.	8B/J)	.	.	.	.	.	.	.	8b\J)
!	!	!	!	!	!	!LO:LB:g=original	!	!	!	!	!	!	!	!
=38	=38	=38	=38	=38	=38	=38	=38	=38	=38	=38	=38	=38	=38	=38
.	.	.	.	8qqd/	.	.	.	.	.	.	.	.	.	.
4C/	.	4cc\	.	2e/	.	2c/	.	2.ryy	2.ryy	2.ryy	2.ryy	2.ryy	.	2cc\
4c\	.	4c\	.	.	.	.	.	.	.	.	.	.	.	.
!	!	!	!	!LO:LB:g=original	!	!	!	!	!	!	!	!	!	!
=:|!|:	=:|!|:	=:|!|:	=:|!|:	=:|!|:	=:|!|:	=:|!|:	=:|!|:	=:|!|:	=:|!|:	=:|!|:	=:|!|:	=:|!|:	=:|!|:	=:|!|:
4ryy	.	4ryy	.	4r	.	4r	.	.	.	.	.	.	.	4gg\
=39	=39	=39	=39	=39	=39	=39	=39	=39	=39	=39	=39	=39	=39	=39
*	*	*tremolo	*	*	*	*tremolo	*	*	*	*	*	*	*	*
*	*	*	*	*	*	*	*	*	*	*	*	*	*	*
8GG/L	p	8G/L	.	8d/L	.	8b\L	.	2.ryy	2.ryy	2.ryy	2.ryy	2.ryy	.	16ff\LL
.	.	.	.	.	.	.	.	.	.	.	.	.	.	16dd\
8GG/	.	8G/	.	8d/	.	8b\	.	.	.	.	.	.	.	16ee\
.	.	.	.	.	.	.	.	.	.	.	.	.	.	16ff\JJ
8GG/	.	8G/	.	8d/	.	8b\	.	.	.	.	.	.	.	16gg\LL
.	.	.	.	.	.	.	.	.	.	.	.	.	.	16aa\
8GG/	.	8G/	.	8d/	.	8b\	.	.	.	.	.	.	.	16bb\
.	.	.	.	.	.	.	.	.	.	.	.	.	.	16cccn\JJ
8GG/	.	8G/	.	8d/	.	8b\	.	.	.	.	.	.	.	8.ddd\L
8GG/J	.	8G/J	.	8d/J	.	8b\J	.	.	.	.	.	.	.	.
.	.	.	.	.	.	.	.	.	.	.	.	.	.	16ff\Jk
=40	=40	=40	=40	=40	=40	=40	=40	=40	=40	=40	=40	=40	=40	=40
*tremolo	*	*	*	*tremolo	*	*	*	*	*	*	*	*	*	*
8C/L	.	8c/L	.	8e/L	.	8cc\L	.	2.ryy	2.ryy	2.ryy	2.ryy	2.ryy	.	8ee\L
8C/	.	8c/	.	8e/	.	8cc\	.	.	.	.	.	.	.	16aa\L
.	.	.	.	.	.	.	.	.	.	.	.	.	.	16gg\JJ
8C/	.	8c/	.	8e/	.	8cc\	.	.	.	.	.	.	.	4.gg\
8C/	.	8c/	.	8e/	.	8cc\	.	.	.	.	.	.	.	.
8C/	.	8c/	.	8e/	.	8cc\	.	.	.	.	.	.	.	.
8C/J	.	8c/J	.	8e/J	.	8cc\J	.	.	.	.	.	.	.	8ee\
!	!	!LO:LB:g=original	!	!	!	!	!	!	!	!	!	!	!	!
=41	=41	=41	=41	=41	=41	=41	=41	=41	=41	=41	=41	=41	=41	=41
8GG/L	.	8G/L	.	8d/L	.	8b\L	.	2.ryy	2.ryy	2.ryy	2.ryy	2.ryy	.	16ff\LL
.	.	.	.	.	.	.	.	.	.	.	.	.	.	16dd\
8GG/	.	8G/	.	8d/	.	8b\	.	.	.	.	.	.	.	16ee\
.	.	.	.	.	.	.	.	.	.	.	.	.	.	16ff\JJ
8GG/	.	8G/	.	8d/	.	8b\	.	.	.	.	.	.	.	16gg\LL
.	.	.	.	.	.	.	.	.	.	.	.	.	.	16aa\
8GG/	.	8G/	.	8d/	.	8b\	.	.	.	.	.	.	.	16bb\
.	.	.	.	.	.	.	.	.	.	.	.	.	.	16ccc\JJ
8GG/	.	8G/	.	8d/	.	8b\	.	.	.	.	.	.	.	8.ddd\L
8GG/J	.	8G/J	.	8d/J	.	8b\J	.	.	.	.	.	.	.	.
.	.	.	.	.	.	.	.	.	.	.	.	.	.	16ff\Jk
*Xtremolo	*	*Xtremolo	*	*Xtremolo	*	*Xtremolo	*	*	*	*	*	*	*	*
!LO:LB:g=original	!	!	!	!	!	!	!	!	!	!	!	!	!	!LO:LB:g=original
=42	=42	=42	=42	=42	=42	=42	=42	=42	=42	=42	=42	=42	=42	=42
.	.	.	.	.	.	.	.	.	.	.	.	.	.	8qqff/
4C/	.	4c\	.	4e/	.	4cc\	.	2.ryy	2.ryy	2.ryy	2.ryy	2.ryy	.	4ee\
8G\L	.	8g\L	.	4g/	.	4b\	.	.	.	.	.	.	.	4dd\
8F\	.	8f\	.	.	.	.	.	.	.	.	.	.	.	.
8E\	.	8e\	.	4r	.	4r	.	.	.	.	.	.	.	8r
8D\J	.	8d\J	.	.	.	.	.	.	.	.	.	.	.	8gg\
=43	=43	=43	=43	=43	=43	=43	=43	=43	=43	=43	=43	=43	=43	=43
4C/	.	4c\	.	8a/L	.	8cc\L	.	2.ryy	2.ryy	2.ryy	2.ryy	2.ryy	.	4ccc\
.	.	.	.	8a/	.	8cc\	.	.	.	.	.	.	.	.
4r	.	4r	.	8g/	.	8b\	.	.	.	.	.	.	.	4bb\
.	.	.	.	8g/	.	8b\	.	.	.	.	.	.	.	.
4r	.	4r	.	8f/	.	8a\	.	.	.	.	.	.	.	4aa\
.	.	.	.	8f/J	.	8a\J	.	.	.	.	.	.	.	.
=44	=44	=44	=44	=44	=44	=44	=44	=44	=44	=44	=44	=44	=44	=44
.	.	.	.	.	.	.	.	.	.	.	.	.	.	8qqaa/
4C/	.	4c\	.	8e/L	.	8gn/L	.	2.ryy	2.ryy	2.ryy	2.ryy	2.ryy	.	8gg\L
.	.	.	.	8e/	.	8g/	.	.	.	.	.	.	.	8gg'\
4r	.	4r	.	8d/	.	8f/	.	.	.	.	.	.	.	8ff'\
.	.	.	.	8d/	.	8f/	.	.	.	.	.	.	.	8ff'\
4r	.	4r	.	8c/	.	8e/	.	.	.	.	.	.	.	8ee'\
.	.	.	.	8c/J	.	8e/J	.	.	.	.	.	.	.	8ee'\J
=45	=45	=45	=45	=45	=45	=45	=45	=45	=45	=45	=45	=45	=45	=45
(8F\L	.	8f\L	.	4c/	.	(8a/L	.	2.ryy	2.ryy	2.ryy	2.ryy	2.ryy	.	8aa\L
8E\	.	8e\	.	.	.	8g#X/	.	.	.	.	.	.	.	8gg#X\
8F\	.	(8f\	.	4c/	.	8a/	.	.	.	.	.	.	.	(8aa\
8E\	.	8e\	.	.	.	8g#/	.	.	.	.	.	.	.	8gg#\
8F\	.	8f\	.	4c/	.	8a/	.	.	.	.	.	.	.	8aa\
8E\J)	.	8e\J)	.	.	.	8g#/J)	.	.	.	.	.	.	.	8gg#\J)
=46	=46	=46	=46	=46	=46	=46	=46	=46	=46	=46	=46	=46	=46	=46
4F\	.	4f\	.	4c/	.	4a/	.	2.ryy	2.ryy	2.ryy	2.ryy	2.ryy	.	4aa\
4r	.	4r	.	4r	.	4r	.	.	.	.	.	.	.	4r
4r	.	4r	.	4r	.	4r	.	.	.	.	.	.	.	4r
!	!	!	!	!	!	!LO:LB:g=original	!	!	!	!	!	!	!	!
=47	=47	=47	=47	=47	=47	=47	=47	=47	=47	=47	=47	=47	=47	=47
.	.	.	.	.	.	8qqg/	.	.	.	.	.	.	.	8qqgg/
!	!	!	!	!LO:N:vis=1	!	!	!	!	!	!	!	!	!	!
4D\	.	4d\	.	2.r	.	4f/	.	2.ryy	2.ryy	2.ryy	2.ryy	2.ryy	.	4ff\
4r	.	4r	.	.	.	4e/	.	.	.	.	.	.	.	4ee\
4r	.	4r	.	.	.	4d/	.	.	.	.	.	.	.	4dd\
!	!	!	!	!LO:LB:g=original	!	!	!	!	!	!	!	!	!	!
=48	=48	=48	=48	=48	=48	=48	=48	=48	=48	=48	=48	=48	=48	=48
.	.	.	.	8qqg/	.	8qqe/	.	.	.	.	.	.	.	8qqee/
4G\	.	4g\	.	4f/	.	4d/	.	2.ryy	2.ryy	2.ryy	2.ryy	2.ryy	.	4dd\
4r	.	4r	.	4e/	.	4c/	.	.	.	.	.	.	.	4cc\
4r	.	4r	.	4d/	.	4B/	.	.	.	.	.	.	.	4b\
!	!	!	!	!	!	!	!	!	!	!	!	!	!	!LO:LB:g=original
=49	=49	=49	=49	=49	=49	=49	=49	=49	=49	=49	=49	=49	=49	=49
4r	.	4r	.	(8e/L	.	8c/L	.	2.ryy	2.ryy	2.ryy	2.ryy	2.ryy	.	8cc\L
.	.	.	.	8d/	.	8B/	.	.	.	.	.	.	.	(8b\
4C/	.	4c\	.	8e/	.	8c/	.	.	.	.	.	.	.	8cc\
.	.	.	.	8g/	.	8e/	.	.	.	.	.	.	.	8ee\
4G\	.	4g\	.	8f/	.	8d/	.	.	.	.	.	.	.	8dd\
.	.	.	.	8d/J)	.	8B/J	.	.	.	.	.	.	.	8b\J)
=50	=50	=50	=50	=50	=50	=50	=50	=50	=50	=50	=50	=50	=50	=50
.	.	.	.	.	.	8qqd/	.	.	.	.	.	.	.	.
4c\	.	4cc\	.	2e/	.	2c/	.	2ryy	2ryy	2ryy	2ryy	2ryy	.	4cc\
!LO:TX:b:B:t=Menuetto\n Da Capo	!	!LO:TX:b:B:t=Da Capo\nMenuetto	!	!LO:TX:b:B:t=Menuetto Da Capo	!	!LO:TX:b:B:t=Menuetto Da Capo	!	!LO:TX:b:B:t=Menuetto Da Capo	!LO:TX:b:B:t=Menuetto Da Capo	!	!	!LO:TX:b:B:t=Menuetto Da Capo	!	!LO:TX:b:B:t=Menuetto Da Capo
4C/	.	4c/	.	.	.	.	.	.	.	.	.	.	.	4r
=:|!	=:|!	=:|!	=:|!	=:|!	=:|!	=:|!	=:|!	=:|!	=:|!	=:|!	=:|!	=:|!	=:|!	=:|!
*-	*-	*-	*-	*-	*-	*-	*-	*-	*-	*-	*-	*-	*-	*-
!!!system-decoration: [g1][g2][g3]
!!!RDF**kern: i = editorial accidental
!!!RDF**kern: > = above
!!!RDF**kern: < = below
!!!RDF**dynam: f = "for"
!!!ENC: Marta Lawrence
!!!END: 2020-07-27
!!!ENC: Andrzej Gręziak
!!!END: 2020-04-20
